X:1
T:New Year’s Hymn
T:Harry Sanders, 1888
T:New Year’s Hymn
T:Public Domain
T:Public Domain
T:Public Domain
C:Harry Sanders, 1888
Z:Public Domain
%%score ( 1 2 ) ( 3 4 )
L:1/8
M:3/4
K:G
V:1 treble 
V:2 treble 
V:3 bass 
V:4 bass 
V:1
 D>[DG] | [GB]3 [DG]<[DF][DA]/ | [DG]2 D z [DG]>[GB] | [Gd]3 [Ge]<[Fc][Fd]/ | [GB]3 z D>[DG] | %5
w: 1.~Join your|es, youth re- joic-|es, New Year hymns|gain to sing; For|our new and|
w: 2.~Thou hast|us, God of glo-|ry, Since the last|Year be- gan; Still|pro- claim- ing|
w: 3.~From this|ment, Ho- ly Je-|sus, May our hearts|whol- ly Thine! Then|we’ll sing that|
 [GB]3 [DG]<[DF][DA]/ | [DG]2 D z [DG]>[GB] | [Fd]3 [Ac]<[GB][FA]/ | G3 z [EG]>[Ec] | %9
w: ny mer- cies, Lord,|our heart- felt praise|bring. Sum- mer flowers|have bloomed and|
w: sweet sto- ry, Of|Thy won- drous love|man. Shall we long-|er keep Him|
w: of prais- es, “I|am His, and He|mine.” Je- sus! by|Thy blood and|
 [Ge]3 [Ge]<[Gc][Ge]/ | [Gd]2 [DB] z [DG]>[GB] | [Gd]3 [GB]<[GA][GB]/ | [FA]3 z D>[DG] | %13
w: ed, Sum- mer hours|have come and fled;|By Thy care we|still are aid-|
w: ing, Who for us|hath wait- ed long?|He to whom both|soul and bo-|
w: it, May we all|Thy child- ren be,|Then in Thee we|shall in- her-|
 [GB]3 [DG]<[DF][DA]/ | [DG]2 D z [DG]>[DB] | [Fd]3 [Ac]<[GB][FA]/ | G3 z ||"^Refrain" D>D | %18
w: By Thy hand we|still are fed. *||||
w: Heart and life, and|all be- long? Lord|glo- ry! we a-|dore|Now be-|
w: Hap- pi- ness e-|tern- al- ly. *||||
 G2 D z D>D | B2 G z D>D | [DG]D [DG][GB] [Gd][GB] | [FA]3 z D>[DG] | [GB]3 [DG]<[DF][DA]/ | %23
w: |||||
w: in an- o- ther|ly love a- bid-|ery schol- ar here. * *|||
w: |||||
 [DG]2 D z [DG]>[DB] | [Fd]3 [Ac]<[GB][FA]/ | G4 |] %26
w: |||
w: |||
w: |||
V:2
 D3/2 x/ | x11/2 | x2 D x3 | x11/2 | x4 D3/2 x/ | x11/2 | x2 D x3 | x11/2 | G3 x3 | x11/2 | x6 | %11
w: voic-||a-||ma-||we||fad-|||
w: kept||New||the||to||wait-|||
w: mo-||be||best||is||Spir-|||
 x11/2 | x4 D3/2 x/ | x11/2 | x2 D x3 | x11/2 | G3 x || D>D | G2 DD>D x | B2 GD>D x | x D x4 | %21
w: |ed,|||||||||
w: |dy,||of||Thee|fore Thee|year; May Thy heav’n-|ing, Be on ev-||
w: |it|||||||||
 x4 D3/2 x/ | x11/2 | x2 D x3 | x11/2 | G4 |] %26
w: |||||
w: |||||
w: |||||
V:3
 [G,B,]>[G,B,] | [G,D]3 [G,B,]<[D,A,][D,C]/ | [G,B,]2 [G,B,] z [G,B,]>[G,D] | %3
 [G,B,]3 [G,C]<[D,A,][D,A,]/ | G,3 z [G,B,]>[G,B,] | [G,D]3 [G,B,]<[D,A,][D,C]/ | %6
 [G,B,]2 [G,B,] z [G,B,]>[G,B,] | [D,A,]3 [D,D]<[D,D][D,C]/ | [G,,B,]3 z [C,C]>[C,C] | %9
 [C,C]3 [C,C]<[E,C][C,C]/ | [G,B,]2 G, z [G,B,]>[G,D] | [G,B,]3 [G,D]<[A,^C][A,,C]/ | %12
 [D,D]3 z [G,B,]>[G,B,] | [G,D]3 [G,B,]<[D,A,][D,C]/ | [G,B,]2 [G,B,] z [G,B,]>[G,B,] | %15
 [D,A,]3 [D,D]<[D,D][D,C]/ | [G,B,]3 z || D,>D, | G,2 D, z D,>D, | B,2 G, z [G,B,]>[G,B,] | %20
 [G,B,][G,B,] [G,B,][G,D] [G,B,][G,D] | [D,D]3 z [G,B,]>[G,B,] | [G,D]3 [G,B,]<[D,A,][D,C]/ | %23
 [G,B,]2 [G,B,] z [G,B,]>[G,B,] | [D,A,]3 [D,D]<[D,D][D,C]/ | [G,B,]4 |] %26
V:4
 x2 | x11/2 | x6 | x11/2 | G,3 x3 | x11/2 | x6 | x11/2 | x6 | x11/2 | x2 G, x3 | x11/2 | x6 | %13
 x11/2 | x6 | x11/2 | x4 || D,>D, | G,2 D,D,>D, x | B,2 G, x3 | x6 | x6 | x11/2 | x6 | x11/2 | %25
 x4 |] %26

